;FLAVOR:Marlin
;TIME:4137
;Filament used: 1.69463m
;Layer height: 0.2
;MINX:88.727
;MINY:82.279
;MINZ:0.2
;MAXX:131.272
;MAXY:133.344
;MAXZ:32.8
;Generated with Cura_SteamEngine 4.8.0
M140 S70
M105
M190 S70
M104 S210
M105
M109 S210
M82 ;absolute extrusion mode
; Ender 3 Custom Start G-code
G92 E0 ; Reset Extruder
G28 ; Home all axes
G1 Z2.0 F3000 ; Move Z Axis up little to prevent scratching of Heat Bed
G1 X0.1 Y20 Z0.3 F5000.0 ; Move to start position
G1 X0.1 Y200.0 Z0.3 F1500.0 E15 ; Draw the first line
G1 X0.4 Y200.0 Z0.3 F5000.0 ; Move to side a little
G1 X0.4 Y20 Z0.3 F1500.0 E30 ; Draw the second line
G92 E0 ; Reset Extruder
G1 Z2.0 F3000 ; Move Z Axis up little to prevent scratching of Heat Bed
G1 X5 Y20 Z0.3 F5000.0 ; Move over to prevent blob squish
G92 E0
G92 E0
G1 F1500 E-6.5
;LAYER_COUNT:165
;LAYER:0
M107
G0 F6000 X95.347 Y90.409 Z0.2
;TYPE:SKIRT
G1 F1500 E0
G1 F1200 X95.897 Y89.842 E0.02627
G1 X96.442 Y89.38 E0.05004
G1 X98.296 Y87.947 E0.12797
G1 X98.464 Y87.83 E0.13478
G1 X99.089 Y87.123 E0.16617
G1 X99.864 Y86.361 E0.20232
G1 X102.35 Y84.235 E0.31111
G1 X102.975 Y83.753 E0.33737
G1 X103.646 Y83.336 E0.36364
G1 X104.355 Y82.99 E0.38988
G1 X105.096 Y82.717 E0.41615
G1 X105.861 Y82.52 E0.44242
G1 X106.642 Y82.402 E0.46869
G1 X107.075 Y82.371 E0.48313
G1 X109.157 Y82.279 E0.55245
G1 X109.946 Y82.284 E0.57869
G1 X110.731 Y82.369 E0.60495
G1 X111.86 Y82.636 E0.64354
G1 X114.18 Y83.372 E0.72449
G1 X115.096 Y83.728 E0.75718
G1 X117.366 Y84.778 E0.84036
G1 X118.097 Y85.164 E0.86786
G1 X118.828 Y85.168 E0.89217
G1 X119.613 Y85.251 E0.91843
G1 X120.386 Y85.413 E0.94469
G1 X121.139 Y85.653 E0.97098
G1 X121.863 Y85.967 E0.99723
G1 X122.552 Y86.353 E1.0235
G1 X122.99 Y86.649 E1.04108
G1 X124.606 Y87.825 E1.10755
G1 X125.22 Y88.322 E1.13383
G1 X125.781 Y88.878 E1.1601
G1 X126.282 Y89.487 E1.18632
G1 X126.72 Y90.145 E1.21262
G1 X127.089 Y90.843 E1.23888
G1 X127.433 Y91.718 E1.27015
G1 X128.05 Y93.614 E1.33646
G1 X128.256 Y94.377 E1.36275
G1 X128.384 Y95.156 E1.38901
G1 X128.433 Y95.944 E1.41527
G1 X128.401 Y96.733 E1.44153
G1 X128.29 Y97.515 E1.4678
G1 X128.1 Y98.282 E1.49408
G1 X127.833 Y99.028 E1.52043
G1 X127.304 Y100.298 E1.56619
G1 X127.35 Y100.926 E1.58714
G1 X127.328 Y101.715 E1.61339
G1 X127.207 Y102.596 E1.64297
G1 X126.692 Y105.233 E1.73233
G1 X126.502 Y105.999 E1.75858
G1 X126.306 Y106.567 E1.77856
G1 X125.195 Y109.422 E1.88046
G1 X125.039 Y109.793 E1.89384
G1 X124.397 Y111.22 E1.94589
G1 X124.037 Y111.923 E1.97216
G1 X123.608 Y112.586 E1.99842
G1 X123.114 Y113.202 E2.02469
G1 X122.651 Y113.672 E2.04663
G1 X122.617 Y114.083 E2.06035
G1 X122.472 Y114.859 E2.0866
G1 X122.249 Y115.617 E2.11288
G1 X121.809 Y116.637 E2.14983
G1 X121.686 Y116.867 E2.1585
G1 X122.011 Y117.354 E2.17798
G1 X122.38 Y118.053 E2.20427
G1 X122.725 Y118.931 E2.23564
G1 X123.092 Y120.06 E2.27513
G1 X123.298 Y120.822 E2.30138
G1 X123.425 Y121.601 E2.32763
G1 X123.474 Y122.39 E2.35393
G1 X123.442 Y123.179 E2.38019
G1 X123.33 Y123.96 E2.40643
G1 X123.141 Y124.727 E2.43271
G1 X122.772 Y125.705 E2.46747
G1 X122.141 Y127.09 E2.51809
G1 X121.778 Y127.791 E2.54435
G1 X121.345 Y128.452 E2.57063
G1 X120.848 Y129.065 E2.59688
G1 X120.292 Y129.626 E2.62315
G1 X119.682 Y130.127 E2.6494
G1 X119.244 Y130.428 E2.66708
G1 X117.55 Y131.511 E2.73395
G1 X116.864 Y131.902 E2.76021
G1 X116.142 Y132.222 E2.78648
G1 X115.392 Y132.467 E2.81272
G1 X114.883 Y132.587 E2.83012
G1 X111.867 Y133.192 E2.93243
G1 X111.086 Y133.308 E2.95869
G1 X110.297 Y133.344 E2.98496
G1 X109.264 Y133.27 E3.0194
G1 X108.006 Y133.096 E3.06164
G1 X107.231 Y132.949 E3.08788
G1 X106.474 Y132.723 E3.11416
G1 X105.744 Y132.423 E3.14041
G1 X105.047 Y132.05 E3.1667
G1 X104.182 Y131.445 E3.20181
G1 X102.471 Y130.067 E3.27488
G1 X101.882 Y129.541 E3.30114
G1 X101.349 Y128.958 E3.32742
G1 X100.878 Y128.325 E3.35366
G1 X100.348 Y127.401 E3.38909
G1 X99.641 Y125.946 E3.44289
G1 X99.333 Y125.219 E3.46915
G1 X99.099 Y124.465 E3.49541
G1 X98.943 Y123.691 E3.52167
G1 X98.866 Y122.905 E3.54794
G1 X98.868 Y122.115 E3.57421
G1 X98.931 Y121.467 E3.59587
G1 X99.312 Y118.715 E3.68827
G1 X99.418 Y118.121 E3.70834
G1 X99.61 Y117.244 E3.7382
G1 X99.616 Y117.091 E3.74329
G1 X99.688 Y116.585 E3.76029
G1 X99.629 Y116.413 E3.76634
G1 X99.449 Y115.644 E3.79261
G1 X99.377 Y115.167 E3.80866
G1 X99.335 Y114.814 E3.82048
G1 X99.281 Y114.026 E3.84675
G1 X99.308 Y113.236 E3.87304
G1 X99.414 Y112.454 E3.89929
G1 X99.528 Y111.978 E3.91557
G1 X99.005 Y111.468 E3.93986
G1 X98.498 Y110.862 E3.96614
G1 X98.222 Y110.474 E3.98198
G1 X97.911 Y110.005 E4.0007
G1 X97.509 Y109.325 E4.02697
G1 X97.177 Y108.609 E4.05322
G1 X96.919 Y107.862 E4.07951
G1 X96.739 Y107.093 E4.10577
G1 X96.667 Y106.616 E4.12182
G1 X96.625 Y106.263 E4.13364
G1 X96.6 Y105.898 E4.14581
G1 X96.301 Y105.588 E4.16014
G1 X95.813 Y104.967 E4.1864
G1 X95.56 Y104.567 E4.20215
G1 X95.446 Y104.454 E4.20749
G1 X94.944 Y103.844 E4.23376
G1 X94.507 Y103.186 E4.26003
G1 X94.138 Y102.488 E4.28629
G1 X93.795 Y101.615 E4.31749
G1 X93.201 Y99.79 E4.38132
G1 X92.995 Y99.028 E4.40758
G1 X92.867 Y98.249 E4.43383
G1 X92.818 Y97.46 E4.46013
G1 X92.85 Y96.671 E4.48639
G1 X92.961 Y95.889 E4.51266
G1 X93.201 Y94.962 E4.54451
G1 X93.795 Y93.137 E4.60834
G1 X94.077 Y92.399 E4.63462
G1 X94.432 Y91.694 E4.66087
G1 X94.857 Y91.028 E4.68715
G1 X95.347 Y90.409 E4.71341
G0 F6000 X95.701 Y90.613
G1 F1200 X96.243 Y90.067 E4.739
G1 X96.687 Y89.696 E4.75824
G1 X98.541 Y88.263 E4.83618
G1 X98.733 Y88.13 E4.84395
G1 X99.389 Y87.388 E4.87689
G1 X100.123 Y86.665 E4.91116
G1 X102.609 Y84.539 E5.01995
G1 X103.219 Y84.07 E5.04554
G1 X103.874 Y83.667 E5.07112
G1 X104.568 Y83.334 E5.09673
G1 X105.292 Y83.075 E5.1223
G1 X106.039 Y82.893 E5.14787
G1 X107.092 Y82.77 E5.18313
G1 X109.174 Y82.678 E5.25245
G1 X109.943 Y82.684 E5.27803
G1 X110.708 Y82.77 E5.30363
G1 X111.739 Y83.017 E5.33889
G1 X114.059 Y83.753 E5.41985
G1 X114.928 Y84.091 E5.45086
G1 X117.198 Y85.141 E5.53404
G1 X117.875 Y85.498 E5.5595
G1 X117.991 Y85.567 E5.56399
G1 X118.057 Y85.564 E5.56619
G1 X118.826 Y85.568 E5.59176
G1 X119.591 Y85.652 E5.61736
G1 X120.342 Y85.815 E5.64292
G1 X121.073 Y86.056 E5.66852
G1 X121.775 Y86.37 E5.6941
G1 X122.754 Y86.973 E5.73234
G1 X124.37 Y88.149 E5.79882
G1 X124.968 Y88.633 E5.8244
G1 X125.512 Y89.177 E5.84999
G1 X125.997 Y89.774 E5.87558
G1 X126.417 Y90.418 E5.90115
G1 X126.768 Y91.103 E5.92675
G1 X127.053 Y91.842 E5.95309
G1 X127.67 Y93.738 E6.01941
G1 X127.869 Y94.481 E6.04499
G1 X127.991 Y95.24 E6.07056
G1 X128.033 Y96.008 E6.09614
G1 X127.995 Y96.777 E6.12175
G1 X127.878 Y97.537 E6.14732
G1 X127.682 Y98.281 E6.17291
G1 X127.464 Y98.875 E6.19396
G1 X126.898 Y100.232 E6.24286
G1 X126.951 Y100.955 E6.26697
G1 X126.926 Y101.723 E6.29253
G1 X126.815 Y102.519 E6.31926
G1 X126.3 Y105.156 E6.40863
G1 X126.113 Y105.903 E6.43424
G1 X125.933 Y106.422 E6.45251
G1 X124.822 Y109.277 E6.5544
G1 X124.674 Y109.629 E6.5671
G1 X124.032 Y111.056 E6.61915
G1 X123.681 Y111.74 E6.64472
G1 X123.26 Y112.384 E6.67031
G1 X122.775 Y112.981 E6.69589
G1 X122.267 Y113.487 E6.71974
G1 X122.212 Y114.089 E6.73985
G1 X122.064 Y114.843 E6.7654
G1 X121.838 Y115.579 E6.79101
G1 X121.454 Y116.453 E6.82276
G1 X121.361 Y116.632 E6.82947
G1 X121.21 Y116.889 E6.83938
G1 X121.287 Y116.984 E6.84345
G1 X121.707 Y117.628 E6.86902
G1 X122.058 Y118.312 E6.89459
G1 X122.345 Y119.054 E6.92106
G1 X122.712 Y120.183 E6.96054
G1 X122.911 Y120.926 E6.98612
G1 X123.032 Y121.686 E7.01172
G1 X123.074 Y122.454 E7.0373
G1 X123.036 Y123.222 E7.06288
G1 X122.918 Y123.982 E7.08846
G1 X122.722 Y124.726 E7.11405
G1 X122.408 Y125.539 E7.14303
G1 X121.777 Y126.924 E7.19365
G1 X121.422 Y127.606 E7.21923
G1 X120.998 Y128.248 E7.24482
G1 X120.51 Y128.843 E7.27041
G1 X119.963 Y129.383 E7.29598
G1 X119.363 Y129.864 E7.32155
G1 X119.029 Y130.091 E7.33499
G1 X117.335 Y131.174 E7.40186
G1 X116.666 Y131.554 E7.42745
G1 X115.962 Y131.862 E7.45301
G1 X115.229 Y132.096 E7.4786
G1 X114.804 Y132.194 E7.4931
G1 X111.788 Y132.799 E7.59542
G1 X111.027 Y132.911 E7.621
G1 X110.259 Y132.944 E7.64657
G1 X109.319 Y132.874 E7.67792
G1 X108.061 Y132.7 E7.72016
G1 X107.306 Y132.555 E7.74573
G1 X106.569 Y132.333 E7.77133
G1 X105.86 Y132.035 E7.79691
G1 X105.186 Y131.666 E7.82246
G1 X104.433 Y131.133 E7.85315
G1 X102.722 Y129.755 E7.92622
G1 X102.149 Y129.242 E7.9518
G1 X101.632 Y128.673 E7.97737
G1 X101.178 Y128.052 E8.00295
G1 X100.708 Y127.226 E8.03456
G1 X100.001 Y125.771 E8.08837
G1 X99.701 Y125.063 E8.11394
G1 X99.477 Y124.327 E8.13953
G1 X99.33 Y123.572 E8.16511
G1 X99.262 Y122.806 E8.19069
G1 X99.274 Y122.037 E8.21627
G1 X99.327 Y121.522 E8.23349
G1 X99.708 Y118.77 E8.3259
G1 X99.808 Y118.206 E8.34495
G1 X100.01 Y117.28 E8.37647
G1 X100.022 Y117.048 E8.3842
G1 X100.1 Y116.548 E8.40103
G1 X99.997 Y116.244 E8.4117
G1 X99.774 Y115.119 E8.44985
G1 X99.732 Y114.766 E8.46167
G1 X99.681 Y113.999 E8.48724
G1 X99.71 Y113.23 E8.51283
G1 X99.818 Y112.469 E8.5384
G1 X99.975 Y111.842 E8.5599
G1 X99.835 Y111.719 E8.5661
G1 X99.284 Y111.181 E8.59171
G1 X98.793 Y110.589 E8.61729
G1 X98.556 Y110.253 E8.63097
G1 X98.245 Y109.784 E8.64968
G1 X97.854 Y109.121 E8.67528
G1 X97.533 Y108.422 E8.70087
G1 X97.287 Y107.693 E8.72646
G1 X97.064 Y106.568 E8.7646
G1 X97.022 Y106.215 E8.77643
G1 X96.989 Y105.726 E8.79273
G1 X96.59 Y105.31 E8.8119
G1 X96.117 Y104.703 E8.83749
G1 X95.874 Y104.314 E8.85275
G1 X95.715 Y104.155 E8.86023
G1 X95.23 Y103.558 E8.88581
G1 X94.81 Y102.913 E8.91141
G1 X94.46 Y102.229 E8.93697
G1 X94.175 Y101.491 E8.96328
G1 X93.581 Y99.666 E9.02711
G1 X93.382 Y98.924 E9.05266
G1 X93.26 Y98.164 E9.07826
G1 X93.218 Y97.396 E9.10385
G1 X93.256 Y96.628 E9.12942
G1 X93.373 Y95.868 E9.155
G1 X93.581 Y95.086 E9.18191
G1 X94.175 Y93.261 E9.24574
G1 X94.451 Y92.543 E9.27133
G1 X94.8 Y91.857 E9.29693
G1 X95.218 Y91.212 E9.32249
G1 X95.701 Y90.613 E9.34809
G0 F6000 X96.054 Y90.819
G1 F1200 X96.588 Y90.295 E9.37297
G1 X96.931 Y90.013 E9.38774
G1 X98.785 Y88.58 E9.46567
G1 X99 Y88.431 E9.47437
G1 X99.688 Y87.653 E9.50892
G1 X100.383 Y86.969 E9.54135
G1 X102.869 Y84.843 E9.65015
G1 X103.463 Y84.388 E9.67503
G1 X104.102 Y83.999 E9.69992
G1 X104.779 Y83.68 E9.72481
G1 X105.486 Y83.435 E9.74969
G1 X106.215 Y83.267 E9.77458
G1 X107.11 Y83.17 E9.80452
G1 X109.192 Y83.078 E9.87383
G1 X109.94 Y83.085 E9.89871
G1 X110.683 Y83.172 E9.92359
G1 X111.618 Y83.399 E9.9556
G1 X113.938 Y84.135 E10.03655
G1 X114.76 Y84.454 E10.06588
G1 X117.03 Y85.504 E10.14906
G1 X117.671 Y85.841 E10.17315
G1 X117.892 Y85.972 E10.18169
G1 X118.075 Y85.964 E10.18779
G1 X118.824 Y85.969 E10.2127
G1 X119.567 Y86.054 E10.23757
G1 X120.297 Y86.218 E10.26246
G1 X121.005 Y86.459 E10.28733
G1 X121.683 Y86.774 E10.3122
G1 X122.519 Y87.296 E10.34498
G1 X124.135 Y88.472 E10.41145
G1 X124.715 Y88.944 E10.43632
G1 X125.242 Y89.475 E10.46121
G1 X125.709 Y90.059 E10.48608
G1 X126.111 Y90.69 E10.51096
G1 X126.444 Y91.36 E10.53585
G1 X126.672 Y91.966 E10.55738
G1 X127.289 Y93.862 E10.6237
G1 X127.483 Y94.585 E10.6486
G1 X127.597 Y95.324 E10.67347
G1 X127.633 Y96.071 E10.69834
G1 X127.588 Y96.818 E10.72323
G1 X127.464 Y97.555 E10.74809
G1 X127.262 Y98.276 E10.77299
G1 X127.094 Y98.721 E10.78881
G1 X126.49 Y100.171 E10.84106
G1 X126.498 Y100.237 E10.84327
G1 X126.551 Y100.983 E10.86814
G1 X126.524 Y101.731 E10.89304
G1 X126.422 Y102.443 E10.91696
G1 X125.907 Y105.08 E11.00632
G1 X125.725 Y105.805 E11.03118
G1 X125.56 Y106.277 E11.04782
G1 X124.449 Y109.132 E11.14971
G1 X124.31 Y109.465 E11.16171
G1 X123.668 Y110.892 E11.21376
G1 X123.325 Y111.557 E11.23864
G1 X122.913 Y112.181 E11.26351
G1 X122.437 Y112.758 E11.28839
G1 X121.902 Y113.281 E11.31327
G1 X121.88 Y113.348 E11.31562
G1 X121.807 Y114.093 E11.34052
G1 X121.656 Y114.826 E11.36541
G1 X121.427 Y115.538 E11.39029
G1 X121.099 Y116.268 E11.4169
G1 X121.006 Y116.447 E11.42361
G1 X120.725 Y116.925 E11.44205
G1 X121 Y117.269 E11.4567
G1 X121.402 Y117.9 E11.48159
G1 X121.735 Y118.57 E11.50647
G1 X121.964 Y119.178 E11.52808
G1 X122.331 Y120.307 E11.56757
G1 X122.524 Y121.03 E11.59246
G1 X122.639 Y121.769 E11.61733
G1 X122.674 Y122.516 E11.6422
G1 X122.629 Y123.263 E11.66709
G1 X122.505 Y124.001 E11.69198
G1 X122.303 Y124.721 E11.71686
G1 X122.044 Y125.373 E11.74019
G1 X121.413 Y126.758 E11.79081
G1 X121.067 Y127.421 E11.81568
G1 X120.652 Y128.044 E11.84058
G1 X120.173 Y128.618 E11.86545
G1 X119.636 Y129.139 E11.89033
G1 X118.814 Y129.754 E11.92448
G1 X117.12 Y130.837 E11.99135
G1 X116.469 Y131.205 E12.01622
G1 X115.782 Y131.503 E12.04113
G1 X114.726 Y131.802 E12.07763
G1 X111.71 Y132.407 E12.17994
G1 X110.969 Y132.515 E12.20485
G1 X110.222 Y132.543 E12.22971
G1 X109.374 Y132.478 E12.258
G1 X108.116 Y132.304 E12.30024
G1 X107.381 Y132.162 E12.32514
G1 X106.666 Y131.943 E12.35001
G1 X105.979 Y131.648 E12.37488
G1 X105.326 Y131.282 E12.39977
G1 X104.684 Y130.822 E12.42604
G1 X102.973 Y129.444 E12.49911
G1 X102.417 Y128.944 E12.52398
G1 X101.916 Y128.388 E12.54887
G1 X101.478 Y127.781 E12.57377
G1 X101.068 Y127.051 E12.60162
G1 X100.361 Y125.596 E12.65542
G1 X100.07 Y124.907 E12.6803
G1 X99.855 Y124.191 E12.70516
G1 X99.717 Y123.455 E12.73007
G1 X99.659 Y122.709 E12.75496
G1 X99.681 Y121.962 E12.77981
G1 X99.723 Y121.577 E12.79269
G1 X100.104 Y118.825 E12.8851
G1 X100.199 Y118.291 E12.90314
G1 X100.41 Y117.323 E12.93609
G1 X100.429 Y117.007 E12.94662
G1 X100.511 Y116.518 E12.96311
G1 X100.366 Y116.077 E12.97855
G1 X100.171 Y115.072 E13.0126
G1 X100.129 Y114.719 E13.02442
G1 X100.08 Y113.973 E13.04929
G1 X100.112 Y113.225 E13.07419
G1 X100.223 Y112.485 E13.09908
G1 X100.412 Y111.762 E13.12393
G1 X100.431 Y111.711 E13.12574
G1 X100.099 Y111.418 E13.14047
G1 X99.564 Y110.895 E13.16536
G1 X98.889 Y110.032 E13.2018
G1 X98.578 Y109.563 E13.22051
G1 X98.199 Y108.918 E13.2454
G1 X97.89 Y108.236 E13.2703
G1 X97.656 Y107.526 E13.29516
G1 X97.461 Y106.521 E13.32921
G1 X97.419 Y106.168 E13.34104
G1 X97.379 Y105.555 E13.36147
G1 X96.879 Y105.033 E13.38551
G1 X96.422 Y104.441 E13.41038
G1 X96.191 Y104.065 E13.42506
G1 X95.985 Y103.857 E13.4348
G1 X95.518 Y103.272 E13.45969
G1 X95.116 Y102.641 E13.48458
G1 X94.783 Y101.971 E13.50946
G1 X94.556 Y101.367 E13.53093
G1 X93.962 Y99.542 E13.59476
G1 X93.769 Y98.82 E13.61962
G1 X93.654 Y98.081 E13.64449
G1 X93.618 Y97.333 E13.6694
G1 X93.663 Y96.587 E13.69426
G1 X93.787 Y95.849 E13.71915
G1 X93.962 Y95.21 E13.74118
G1 X94.556 Y93.385 E13.80502
G1 X94.825 Y92.687 E13.8299
G1 X95.167 Y92.021 E13.8548
G1 X95.578 Y91.396 E13.87968
G1 X96.054 Y90.819 E13.90455
G0 F6000 X96.406 Y91.028
G1 F1200 X97.176 Y90.329 E13.93914
G1 X99.03 Y88.896 E14.01708
G1 X99.269 Y88.731 E14.02674
G1 X99.988 Y87.918 E14.06284
G1 X100.643 Y87.273 E14.09341
G1 X103.129 Y85.147 E14.20221
G1 X103.707 Y84.706 E14.22639
G1 X104.329 Y84.331 E14.25055
G1 X104.988 Y84.027 E14.27469
G1 X105.677 Y83.797 E14.29885
G1 X106.387 Y83.644 E14.323
G1 X107.128 Y83.569 E14.34777
G1 X109.21 Y83.477 E14.41709
G1 X109.936 Y83.485 E14.44124
G1 X110.657 Y83.573 E14.4654
G1 X111.497 Y83.78 E14.49417
G1 X113.817 Y84.516 E14.57512
G1 X114.592 Y84.817 E14.60278
G1 X116.862 Y85.867 E14.68596
G1 X117.466 Y86.185 E14.70867
G1 X117.789 Y86.377 E14.72116
G1 X118.094 Y86.363 E14.73132
G1 X118.82 Y86.369 E14.75547
G1 X119.542 Y86.455 E14.77965
G1 X120.249 Y86.62 E14.8038
G1 X120.934 Y86.862 E14.82796
G1 X121.588 Y87.177 E14.8521
G1 X122.284 Y87.619 E14.87953
G1 X123.9 Y88.795 E14.946
G1 X124.462 Y89.255 E14.97016
G1 X124.971 Y89.773 E14.99431
G1 X125.42 Y90.344 E15.01847
G1 X125.804 Y90.96 E15.04261
G1 X126.117 Y91.616 E15.06679
G1 X126.292 Y92.09 E15.08359
G1 X126.909 Y93.986 E15.14991
G1 X127.095 Y94.688 E15.17406
G1 X127.204 Y95.406 E15.19822
G1 X127.232 Y96.132 E15.22238
G1 X127.181 Y96.856 E15.24652
G1 X127.05 Y97.571 E15.2707
G1 X126.725 Y98.567 E15.30555
G1 X126.081 Y100.113 E15.36125
G1 X126.102 Y100.286 E15.36704
G1 X126.151 Y101.011 E15.39121
G1 X126.121 Y101.737 E15.41538
G1 X126.03 Y102.366 E15.43652
G1 X125.515 Y105.003 E15.52588
G1 X125.336 Y105.707 E15.55004
G1 X125.188 Y106.131 E15.56498
G1 X124.077 Y108.986 E15.66687
G1 X123.945 Y109.301 E15.67823
G1 X123.303 Y110.728 E15.73028
G1 X122.969 Y111.373 E15.75444
